X: 227
T: Lady Love
B: australian dance tunes
M:2/4
L:1/8
Q: 1/4=100
K:G
V:1 
E|:D D2 G|B2 G2|E E2 G|cB AG/2G/2|FF2 A|!
d2 d2|1 dd/2B/2 DB|G2 G:|2 dd/2B/2 dB|G2A2||!
|:B/2d/2G GG|B/2d/2G GG|c/2e/2A gf|g2 g2|!
DD/2D/2 FF/2F/2|AA F2|1 B2 d/2B/2A/2G/2|f4:|2 G/2A/2D EF|G2||
% abcbook-tune_id 62a07850a1d6ea18d19224ad


% abcbook-boost 0
% abcbook-tablature 
% abcbook-transpose 
% abcbook-lastupdated 1654683750418
% abcbook-soundfonts 
% abcbook-repeats 1


